public/images/home/arrow.svg

<svg width="343" height="45" viewBox="0 0 343 45" fill="none" xmlns="http://www.w3.org/2000/svg">
<path fill-rule="evenodd" clip-rule="evenodd" d="M299.083 2.00429C307.64 5.6649 318.813 10.1313 329.496 14.0654C335.724 16.3881 341.362 18.6213 341.957 18.9794C343.488 19.8747 343.339 20.8993 341.462 22.5505C340.079 23.7542 337.458 24.6046 320.349 29.25C303.686 33.7612 300.322 34.5221 297.354 34.5669C294.138 34.5669 293.89 34.4774 293.202 33.3633C292.508 32.289 292.508 32.0254 293.251 30.6825C293.697 29.8767 295.724 27.4197 297.75 25.1865C299.826 22.9981 301.456 21.1679 301.412 21.1231C301.363 21.0783 298.543 20.944 295.135 20.7649L288.951 20.4964L288.108 21.7895C285.091 26.614 275.944 26.0321 273.174 20.8048L272.381 19.243L265.608 18.8849C251.269 18.0792 131.946 18.8849 117.012 19.9145L113.747 20.1383L113.4 21.7448C112.904 24.4256 111.027 26.5245 108.108 27.7729C102.469 30.2299 97.0289 29.648 93.2238 26.1664L91.1478 24.2913L88.7746 26.614C84.92 30.3194 76.3131 35.3229 70.823 37.0189C66.0763 38.4911 60.9331 37.9589 60.041 35.8998C59.1985 33.8457 59.7436 32.5078 62.3648 30.1404L64.9859 27.7729L60.4871 27.5043C54.4518 27.1909 50.498 25.8083 49.1655 23.5751C48.3229 22.1924 48.323 21.8791 48.9177 20.7152C49.8593 18.9744 52.4309 17.4525 55.9386 16.607L58.7581 15.8908L55.3438 14.5976C45.4044 10.8475 42.7337 3.78984 50.3989 1.5119C54.1104 0.397796 62.464 0.79567 68.4001 2.36238C74.0884 3.87934 87.1886 9.68862 89.562 11.7875C91.291 13.3045 91.3902 13.3045 91.8857 12.4589C92.9265 10.7629 95.8891 9.33049 98.5102 9.33049C102.96 9.33049 106.473 10.5341 109.391 13.0807C110.873 14.329 112.111 15.5824 112.211 15.8958C112.359 16.2539 113.45 16.2986 116.363 15.9853C118.538 15.7614 136.687 15.4034 156.665 15.1348C176.643 14.911 199.788 14.5081 208.092 14.2395C217.04 13.9262 233.56 13.7919 248.692 13.8814L274.21 14.1053L274.705 12.8569C275.597 10.8027 278.07 9.68363 281.379 9.90745C284.644 10.0865 287.117 11.5139 288.35 13.9262C289.292 15.7117 290.525 16.0251 296.561 16.0251C299.38 16.0251 300.124 15.8908 299.925 15.4431C299.777 15.085 297.849 12.3595 295.674 9.37032C293.45 6.33141 291.671 3.43176 291.671 2.84985C291.671 1.73077 293.301 0.392822 294.639 0.392822C295.035 0.437585 297.062 1.15378 299.088 1.99931L299.083 2.00429ZM51.4398 5.13274C48.6699 5.80419 51.2415 8.48495 57.0289 10.937C58.9066 11.7427 63.356 13.1254 66.9188 14.0207C75.3769 16.1643 75.5751 16.2538 75.5751 17.547C75.5751 18.1737 75.3274 18.7954 75.0796 18.9297C74.7822 19.064 71.3241 19.2878 67.2657 19.3325C60.0961 19.4668 55.052 20.2726 53.4221 21.4762C51.4948 22.9484 59.7491 24.2018 67.1665 23.5751C70.9716 23.2617 75.1292 22.5456 79.1325 21.5658C79.5785 21.4315 80.4154 21.7448 80.9606 22.2372C82.4419 23.5751 81.8032 24.7837 79.0829 25.674C74.6831 27.0566 69.8868 29.3794 67.1665 31.4335C63.5542 34.1143 63.4551 34.5172 66.4232 34.2486C71.0708 33.7562 84.9199 26.0768 84.573 24.152C84.4738 23.7492 84.3252 21.0684 84.2261 18.2583L84.0278 13.1204L80.4154 11.4692C75.421 9.14649 67.2602 6.28664 63.5543 5.57541C60.3384 4.90396 53.3671 4.68013 51.4398 5.12776V5.13274ZM302.299 10.4496C305.713 15.0054 306.996 17.5072 306.996 19.7851C306.996 21.7497 306.054 23.1325 301.307 28.4046C300.564 29.2103 300.168 29.8767 300.366 29.8767C300.564 29.8767 306.302 28.4045 313.125 26.5692C325.388 23.2617 328.851 22.3715 333.202 21.3419L335.426 20.8495L330.928 19.3773C324.744 17.368 313.075 12.8568 306.104 9.77315C302.937 8.39047 300.267 7.27143 300.168 7.31619C300.068 7.40571 301.06 8.78835 302.293 10.4446L302.299 10.4496ZM96.8362 14.1997C94.3141 15.851 94.1158 20.8097 96.4892 23.0877C98.6643 25.1866 102.816 25.4551 106.131 23.6248C109.446 21.7945 109.199 18.9347 105.289 15.0055L103.064 12.817L100.592 13.0856C99.2096 13.2647 97.5245 13.7571 96.8362 14.1997Z" fill="white"/>
<path fill-rule="evenodd" clip-rule="evenodd" d="M3.81827 15.0012C4.41298 15.6726 6.68711 18.7065 8.81266 21.7007C13.6585 28.4002 16.4778 30.9468 22.0175 33.6276C27.1111 36.0846 29.2863 37.6463 28.8899 38.5863C28.2951 40.0585 21.4723 38.5863 16.3787 35.8608C9.90297 32.4687 -0.432915 19.5571 0.0131187 15.4488C0.211357 13.4394 2.28743 13.2156 3.81827 15.0012Z" fill="white"/>
<path fill-rule="evenodd" clip-rule="evenodd" d="M6.09507 35.368C7.67547 36.7059 10.594 38.5859 12.9178 39.6553C18.854 42.4704 20.1865 43.2711 20.1865 44.0321C20.1865 44.614 19.5918 44.7035 16.4751 44.5245C13.507 44.3454 12.0257 43.9873 9.10717 42.6494C3.56752 40.1924 -0.733042 35.4575 0.946474 33.6272C1.98722 32.5081 3.3693 32.9557 6.08956 35.368H6.09507Z" fill="white"/>
</svg>

<svg xmlns="http://www.w3.org/2000/svg" width="343" height="45" fill="none" viewBox="0 0 343 45"><path fill="#fff" fill-rule="evenodd" d="M299.083 2.004c8.557 3.66 19.73 8.127 30.413 12.061 6.228 2.323 11.866 4.556 12.461 4.914 1.531.896 1.382 1.92-.495 3.572-1.383 1.203-4.004 2.054-21.113 6.699-16.663 4.511-20.027 5.272-22.995 5.317-3.216 0-3.464-.09-4.152-1.204-.694-1.074-.694-1.338.049-2.68.446-.806 2.473-3.263 4.499-5.497 2.076-2.188 3.706-4.018 3.662-4.063-.049-.045-2.869-.179-6.277-.358l-6.184-.269-.843 1.294c-3.017 4.824-12.164 4.242-14.934-.985l-.793-1.562-6.773-.358c-14.339-.806-133.662 0-148.596 1.03l-3.265.223-.347 1.607c-.496 2.68-2.373 4.78-5.292 6.028-5.639 2.457-11.08 1.875-14.884-1.607l-2.076-1.875-2.373 2.323c-3.855 3.705-12.462 8.709-17.952 10.405-4.747 1.472-9.89.94-10.782-1.12-.842-2.053-.297-3.391 2.324-5.759l2.62-2.367-4.498-.269c-6.035-.313-9.989-1.696-11.321-3.929-.843-1.383-.843-1.696-.248-2.86.941-1.74 3.513-3.262 7.02-4.108l2.82-.716-3.414-1.293c-9.94-3.75-12.61-10.808-4.945-13.086C54.11.398 62.464.796 68.4 2.362c5.688 1.518 18.79 7.328 21.162 9.426 1.729 1.517 1.828 1.517 2.324.67 1.04-1.695 4.003-3.128 6.624-3.128 4.45 0 7.963 1.204 10.881 3.75 1.482 1.249 2.72 2.502 2.82 2.816.148.358 1.239.403 4.152.09 2.175-.225 20.324-.583 40.302-.851 19.978-.224 43.123-.627 51.427-.896 8.948-.313 25.468-.447 40.6-.358l25.518.224.495-1.248c.892-2.054 3.365-3.173 6.674-2.95 3.265.18 5.738 1.607 6.971 4.02.942 1.785 2.175 2.098 8.211 2.098 2.819 0 3.563-.134 3.364-.582-.148-.358-2.076-3.083-4.251-6.073-2.224-3.039-4.003-5.938-4.003-6.52 0-1.12 1.63-2.457 2.968-2.457.396.045 2.423.76 4.449 1.606zM51.44 5.133c-2.77.671-.198 3.352 5.589 5.804 1.878.806 6.327 2.188 9.89 3.084 8.458 2.143 8.656 2.233 8.656 3.526 0 .627-.248 1.248-.495 1.383-.298.134-3.756.358-7.814.402-7.17.135-12.214.94-13.844 2.144-1.927 1.472 6.327 2.726 13.745 2.1 3.805-.314 7.962-1.03 11.965-2.01.447-.134 1.283.179 1.829.671 1.48 1.338.842 2.547-1.878 3.437-4.4 1.383-9.196 3.705-11.916 5.76-3.613 2.68-3.712 3.083-.744 2.815 4.648-.493 18.497-8.172 18.15-10.097-.1-.403-.248-3.084-.347-5.894l-.198-5.138-3.613-1.65c-4.994-2.324-13.155-5.183-16.86-5.895-3.217-.671-10.188-.895-12.115-.447zm250.859 5.317c3.414 4.555 4.697 7.057 4.697 9.335 0 1.965-.942 3.348-5.689 8.62-.743.805-1.139 1.472-.941 1.472s5.936-1.473 12.759-3.308c12.263-3.307 15.726-4.197 20.077-5.227l2.224-.492-4.498-1.473c-6.184-2.009-17.853-6.52-24.824-9.604-3.167-1.383-5.837-2.502-5.936-2.457-.1.09.892 1.472 2.125 3.129zM96.836 14.2c-2.522 1.651-2.72 6.61-.347 8.888 2.175 2.099 6.327 2.367 9.642.537s3.068-4.69-.842-8.62l-2.225-2.188-2.472.269c-1.382.179-3.067.671-3.756 1.114m-93.018.801c.595.672 2.87 3.705 4.995 6.7 4.845 6.7 7.665 9.246 13.204 11.927 5.094 2.457 7.27 4.018 6.873 4.958-.595 1.473-7.418 0-12.511-2.725C9.903 32.469-.433 19.557.013 15.449c.198-2.01 2.274-2.233 3.805-.448m2.277 20.367c1.58 1.338 4.499 3.218 6.823 4.287 5.936 2.815 7.268 3.616 7.268 4.377 0 .582-.594.672-3.71.493-2.969-.18-4.45-.538-7.369-1.876-5.54-2.457-9.84-7.191-8.16-9.022 1.04-1.119 2.422-.671 5.143 1.741z" clip-rule="evenodd"/></svg>
